X: 159
T: Siobhan O'Donnell's
T:The Reel Of Sceachóg
M:C
C:John Brady (Offaly)
L:1/8
R:reel
K:A
"A"ABce ~a3e|"D"~f3a "A"fece|"D"f2fe "A"cBAF|EFAB cBAF|
"A"~E3A ~c3e|"D"~f3a "A"fece|"(D)"f2"A"ec dBcA|"E"BcAB "A"cAAB:|
|: "A"ABce fece|"D"fA~A2 fAeA|fA~A2 fAeA|"A"aefa eAce|
"D"~f3e "A"cBAF|~E3F ABce|"(D)"f2"A"ec dBcA|"E"BcAB "A" cAAB:|


